X:1
T:Title
%%score { ( 1 3 ) | ( 2 4 ) }
L:1/8
M:4/4
K:F
V:1 treble nm="Grand Piano"
V:3 treble 
V:2 bass 
V:4 bass 
V:1
 z4 z2[Q:1/4=100] CC | F2 F2 A2 B2 | c4 A2 F2 | [DG]2 [DG]2 F2 E2 |[M:3/4] F6 |[M:1/4] [CF][CE] | %6
[M:4/4] [B,D]2 [DF]2 [DB]2 [Fd]2 | c4 A2 A2 | G2 c2 c2 =B2 |[M:5/8] [Ec]-[Ec]- [Ec]3 |[M:3/8] ABA | %11
[M:4/4] [EA]>[EG] [EG]2- [EG][EG][EA][EG] | G>F F2- FFGF |[M:17/16] F>EE/-E/-E-<E[Bd][ce]3/2[Bd] | %14
[M:4/4] [Bd]>[Ac] [Ac]2- [Ac]ABA | [EA]>[EG] [EG]2- [EG][EG][EA][EG] | G>F F2- FFFF | %17
[M:11/8] d-d- d2- d/[DFG][DEB]/-[DEB]- [DEB]3 [B,EA][Q:1/4=97][Q:1/4=94][Q:1/4=91][Q:1/4=88][Q:1/4=84][Q:1/4=81][Q:1/4=78] | %18
[M:3/4] F2- [DF-]2 [CF]2 |] %19
V:2
 z4 z2 [F,A,][F,A,] | [F,A,C]2 [F,A,C]2 [F,CF]2 [F,G,F]2 | [F,A,F]4 [F,CF]2 [F,A,C]2 | %3
 [B,,B,]2 [B,,B,]2 [C,A,C]2 [C,B,C]2 |[M:3/4] [F,A,C]6 |[M:1/4] [A,,F,][A,,F,] | %6
[M:4/4] [B,,F,]2 [B,,B,]2 [B,,B,]2 [B,,B,]2 | [F,A,F]4 [F,CF]2 [F,CF]2 | %8
 [G,CE]2 [G,CE]2 [G,DF]2 [G,DF]2 |[M:5/8][K:bass] [C,C]-[C,C]- [C,C]3 |[M:3/8] [F,CF][F,DF][F,CF] | %11
[M:4/4] [C,B,]>[C,B,] [C,B,]2- [C,B,][C,B,][C,C][C,B,] | %12
 [F,A,C]>[F,A,C] [F,A,C]2- [F,A,C][F,A,C][F,B,C][F,A,C] | %13
[M:17/16] [G,B,C]>[G,B,C][G,B,C]/-[G,B,C]/-[G,B,C]-<[G,B,C][C,C][C,C]3/2[C,C] | %14
[M:4/4] [F,C]>[F,F] [F,F]2- [F,F][F,CF][F,DF][F,CF] | %15
 [C,B,]>[C,B,] [C,B,]2- [C,B,][C,B,][C,C][C,B,] | %16
 [F,A,C]>[F,A,C] [F,A,C]2- [F,A,C][F,A,][G,B,][K:treble][A,C] | %17
[M:11/8] [B,DF]-[B,DF]- [B,DF]2- [B,DF]/[K:bass]B,,C,/-C,- C,3 C, |[M:3/4] z2 B,2 A,2 |] %19
V:3
 x8 | x8 | x8 | x8 |[M:3/4] x6 |[M:1/4] x2 |[M:4/4] x8 | x8 | x8 |[M:5/8] x5 |[M:3/8] x3 | %11
[M:4/4] x8 | x8 |[M:17/16] x17/2 |[M:4/4] x8 | x8 | x8 |[M:11/8] x11 |[M:3/4] A,2 z2 z2 |] %19
V:4
 x8 | x8 | x8 | x8 |[M:3/4] x6 |[M:1/4] x2 |[M:4/4] x8 | x8 | x8 |[M:5/8][K:bass] x5 |[M:3/8] x3 | %11
[M:4/4] x8 | x8 |[M:17/16] x17/2 |[M:4/4] x8 | x8 | x7[K:treble] x |[M:11/8] x9/2[K:bass] x13/2 | %18
[M:3/4] F,6 |] %19

